small/extra/apps/standard/dc++.svg

<?xml version="1.0" encoding="UTF-8" standalone="no"?>
<!-- Created with Inkscape (http://www.inkscape.org/) -->

<svg
   xmlns:dc="http://purl.org/dc/elements/1.1/"
   xmlns:cc="http://creativecommons.org/ns#"
   xmlns:rdf="http://www.w3.org/1999/02/22-rdf-syntax-ns#"
   xmlns:svg="http://www.w3.org/2000/svg"
   xmlns="http://www.w3.org/2000/svg"
   xmlns:sodipodi="http://sodipodi.sourceforge.net/DTD/sodipodi-0.dtd"
   xmlns:inkscape="http://www.inkscape.org/namespaces/inkscape"
   id="svg2"
   height="100%"
   width="100%"
   version="1.1"
   viewBox="0 0 512 512"
   inkscape:version="0.91 r13725"
   sodipodi:docname="dc++.svg">
  <defs
     id="defs32" />
  <sodipodi:namedview
     pagecolor="#ffffff"
     bordercolor="#666666"
     borderopacity="1"
     objecttolerance="10"
     gridtolerance="10"
     guidetolerance="10"
     inkscape:pageopacity="0"
     inkscape:pageshadow="2"
     inkscape:window-width="640"
     inkscape:window-height="480"
     id="namedview30"
     showgrid="false"
     inkscape:zoom="0.5546875"
     inkscape:cx="36.056338"
     inkscape:cy="240.67606"
     inkscape:current-layer="svg2" />
  <metadata
     id="metadata60">
    <rdf:RDF>
      <cc:Work
         rdf:about="">
        <dc:format>image/svg+xml</dc:format>
        <dc:type
           rdf:resource="http://purl.org/dc/dcmitype/StillImage" />
      </cc:Work>
    </rdf:RDF>
  </metadata>
  <path
     inkscape:connector-curvature="0"
     style="fill:#afb922"
     id="path4"
     d="m 26,-0.002 c -14.397,0 -26,11.603 -26,26 l 0,460 c 0,14.397 11.603,26 26,26 l 460,0 c 14.397,0 26,-11.603 26,-26 l 0,-460 c 0,-14.397 -11.6,-26 -26,-26 l -460,0" />
  <path
     style="color:#000000;opacity:0.25"
     d="M 152.58984 40.966797 C 88.459844 40.775797 33.189844 102.76725 41.589844 166.65625 C 43.674844 206.34725 72.437094 234.9575 99.371094 260.6875 L 121.74609 283.0625 C 87.376094 321.3225 87.177094 381.34195 115.24609 422.50195 C 144.72809 451.45795 174.66555 482.00195 203.93555 512.00195 L 485.99609 512.00195 C 490.25509 512.00195 494.26659 510.99245 497.80859 509.18945 C 495.40759 506.78245 492.98134 504.36045 490.52734 501.93945 C 493.48634 504.18545 496.53759 506.25095 499.68359 508.12695 C 507.08159 503.55195 511.99609 495.37081 511.99609 486.00781 L 511.99609 206.41797 C 485.60009 180.16797 460.2508 154.06688 436.0918 126.79688 C 396.0988 86.327875 325.63055 84.123578 283.06055 121.76758 C 257.64155 98.141578 236.18295 69.407734 205.25195 52.677734 C 189.88195 45.135734 172.78325 41.070734 155.65625 41.052734 C 154.63425 41.017734 153.61175 40.992281 152.59375 40.988281 L 152.58984 40.966797 z "
     id="path3406" />
  <path
     inkscape:connector-curvature="0"
     id="path54"
     style="color:#000000;fill:#ffffff"
     d="M 158.53,41.075 A 114.21,114.21 0 0 0 41,155.235 a 114.21,114.21 0 0 0 80.93,109.03 c 22.383,-21.278 51.891,-34.92 83.31,-34.891 8.665,-0.301 17.316,0.492 25.871,1.918 -0.735,-3.998 -1.324,-8.04 -1.608,-12.13 -3.896,-35.978 10.43,-71.37 34.79,-97.26 A 114.21,114.21 0 0 0 158.533,41.068 m 201.57,53.711 a 114.21,114.21 0 0 0 -117.53,114.16 114.215,114.215 0 0 0 228.43,0 114.21,114.21 0 0 0 -110.9,-114.16 m -147.81,147.81 a 114.21,114.21 0 0 0 -117.53,114.16 114.215,114.215 0 0 0 228.43,0 114.21,114.21 0 0 0 -2.9033,-25.248 c -40.06,-12.41 -73.38,-45.78 -85.8,-86.01 a 114.21,114.21 0 0 0 -22.189,-2.9033" />
</svg>

<?xml version="1.0" encoding="UTF-8" standalone="no"?>
<!-- Created with Inkscape (http://www.inkscape.org/) -->
<svg id="svg2" xmlns:rdf="http://www.w3.org/1999/02/22-rdf-syntax-ns#" xmlns="http://www.w3.org/2000/svg" height="100%" width="100%" version="1.1" xmlns:cc="http://creativecommons.org/ns#" viewBox="0 0 512 512" xmlns:dc="http://purl.org/dc/elements/1.1/">
 <metadata id="metadata60">
  <rdf:RDF>
   <cc:Work rdf:about="">
    <dc:format>image/svg+xml</dc:format>
    <dc:type rdf:resource="http://purl.org/dc/dcmitype/StillImage"/>
   </cc:Work>
  </rdf:RDF>
 </metadata>
 <path id="path4" d="m26 0c-14.397 0-26 11.603-26 26v460c0 14.397 11.603 26 26 26h460c14.397 0 26-11.603 26-26v-460c0-14.397-11.6-26-26-26h-460" fill="#afb922"/>
 <path id="path6" opacity=".25" style="color:#000000" d="m152.59 40.969c-64.13-0.191-119.4 61.801-111 125.69 2.085 39.691 30.847 68.3 57.781 94.03l22.375 22.375c-34.37 38.26-34.569 98.28-6.5 139.44 29.482 28.956 59.42 59.5 88.69 89.5h282.06c4.259 0 8.271-1.01 11.813-2.813-2.401-2.407-4.827-4.829-7.281-7.25 2.959 2.246 6.01 4.312 9.156 6.188 7.398-4.575 12.313-12.757 12.313-22.12v-279.59c-26.396-26.25-51.747-52.35-75.906-79.62-39.993-40.469-110.46-42.674-153.03-5.03-25.419-23.626-46.879-52.36-77.81-69.09-15.37-7.542-32.467-11.607-49.594-11.625-1.022-0.035-2.045-0.059-3.063-0.063m277.94 387c10.954 15.537 21.891 31.06 32.781 46.625-13.814-13.492-27.546-27.711-40.656-40.625-1.715-2.491-9.255-6.898 2.219-3.594l6.25 0.906-0.594-3.313m33.06 47.03c1.543 0.988-0.406 0.664 0 0m25.969 26.25c0.666 0.177-0.034 0.244 0 0"/>
 <text id="text8" style="word-spacing:0;letter-spacing:0" font-size="129.23px" line-height="125%" y="73.160004" x="-434.51999" font-family="Gentium Book Basic">
  <tspan id="tspan10" y="73.160004" x="-434.51999"/>
 </text>
 <text id="text12" style="text-anchor:middle" transform="scale(4.0128 .2492)" font-size="46.954px" y="-55.560001" x="88.800003" font-family="Arial"/>
 <text id="text14" style="word-spacing:0;letter-spacing:0" font-size="129.23px" line-height="125%" y="-6.8369999" x="146.75" font-family="Gentium Book Basic">
  <tspan id="tspan16" y="-6.8369999" x="146.75"/>
 </text>
 <text id="text18" style="text-anchor:middle" transform="scale(4.0128 .2492)" font-size="46.954px" y="-376.60001" x="233.64999" font-family="Arial"/>
 <text id="text20" style="word-spacing:0;letter-spacing:0" font-size="129.23px" line-height="125%" y="-188.10001" x="-924.83002" font-family="Gentium Book Basic">
  <tspan id="tspan22" y="-188.10001" x="-924.83002"/>
 </text>
 <text id="text24" style="text-anchor:middle" transform="scale(4.0128 .2492)" font-size="46.954px" y="-1103.9399" x="-33.393002" font-family="Arial"/>
 <text id="text26" style="word-spacing:0;letter-spacing:0" font-size="129.23px" line-height="125%" y="-404.57001" x="173.22" font-family="Gentium Book Basic">
  <tspan id="tspan28" y="-404.57001" x="173.22"/>
 </text>
 <text id="text30" style="text-anchor:middle" transform="scale(4.0128 .2492)" font-size="46.954px" y="-1972.61" x="240.25" font-family="Arial"/>
 <text id="text32" style="word-spacing:0;letter-spacing:0" font-size="129.23px" line-height="125%" y="-484.57001" x="754.48999" font-family="Gentium Book Basic">
  <tspan id="tspan34" y="-484.57001" x="754.48999"/>
 </text>
 <text id="text36" style="text-anchor:middle" transform="scale(4.0128 .2492)" font-size="46.954px" y="-2293.6399" x="385.10001" font-family="Arial"/>
 <text id="text38" style="word-spacing:0;letter-spacing:0" font-size="129.23px" line-height="125%" y="-956.96997" x="365.37" font-family="Gentium Book Basic">
  <tspan id="tspan40" y="-956.96997" x="365.37"/>
 </text>
 <text id="text42" style="text-anchor:middle" transform="scale(4.0128 .2492)" font-size="46.954px" y="-4189.2798" x="288.13" font-family="Arial"/>
 <text id="text44" style="word-spacing:0;letter-spacing:0" font-size="129.23px" line-height="125%" y="-1036.98" x="946.63" font-family="Gentium Book Basic">
  <tspan id="tspan46" y="-1036.98" x="946.63"/>
 </text>
 <text id="text48" style="text-anchor:middle" transform="scale(4.0128 .2492)" font-size="46.954px" y="-4510.3198" x="432.97" font-family="Arial"/>
 <text id="text50" style="word-spacing:0;letter-spacing:0" font-size="208.33px" line-height="125%" y="377.73999" x="-886.16998" font-family="Gentium Book Basic">
  <tspan id="tspan52" y="377.73999" x="-886.16998"/>
 </text>
 <path id="path54" style="color:#000000" d="m158.53 41.077a114.21 114.21 0 0 0 -117.53 114.16 114.21 114.21 0 0 0 80.93 109.03c22.383-21.278 51.891-34.92 83.31-34.891 8.665-0.301 17.316 0.492 25.871 1.918-0.735-3.998-1.324-8.04-1.608-12.13-3.896-35.978 10.43-71.37 34.79-97.26a114.21 114.21 0 0 0 -105.76 -80.834m201.57 53.711a114.21 114.21 0 0 0 -117.53 114.16 114.21 114.21 0 0 0 228.43 0 114.21 114.21 0 0 0 -110.9 -114.16m-147.81 147.81a114.21 114.21 0 0 0 -117.53 114.16 114.21 114.21 0 0 0 228.43 0 114.21 114.21 0 0 0 -2.9033 -25.248c-40.06-12.41-73.38-45.78-85.8-86.01a114.21 114.21 0 0 0 -22.189 -2.9033" fill="#fff"/>
</svg>
